X: 5
T: The Belharbour
R: reel
M: 4/4
L: 1/8
K: Gmaj
|: E |DG G2 DGBd | g2 dg egdB | A2 AG AcBA | GBAF GFEG |
DG G2 DG (3Bcd | gedB eBdB | GA (3Bcd gedc | (3Bcd AF G3 :|
|: e |dggf gG (3Bcd | gbaf gfed | eaag a2 ag | eaag edBc |
dggf g2 (3Bcd | g2 af gedB | GA (3Bcd gedc | (3Bcd AF G3 :|


Tune 622	Setting 13639

